Papirus/16x16/actions/office-chart-scatter.svg

<?xml version="1.0" encoding="UTF-8" standalone="no"?>
<!--Created with Inkscape (http://www.inkscape.org/)-->
<svg id="svg3049" xmlns:rdf="http://www.w3.org/1999/02/22-rdf-syntax-ns#" xmlns="http://www.w3.org/2000/svg" height="16" width="16" version="1.1" xmlns:cc="http://creativecommons.org/ns#" xmlns:dc="http://purl.org/dc/elements/1.1/">
 <defs id="defs3051">
 </defs>
 <metadata id="metadata3054">
  <rdf:RDF>
   <cc:Work rdf:about="">
    <dc:format>image/svg+xml</dc:format>
    <dc:type rdf:resource="http://purl.org/dc/dcmitype/StillImage"/>
    <dc:title/>
   </cc:Work>
  </rdf:RDF>
 </metadata>
 <g id="layer1" transform="translate(-421.71 -531.79)">
  <path id="rect4250" opacity=".5" d="m2 2v11 1h1 11v-1h-11v-11h-1zm2 0v1h1v-1h-1zm2 0v1h1v-1h-1zm6 1v1h1v-1h-1zm1 1v1h1v-1h-1zm0 1h-1v1h1v-1zm-1 0v-1h-1v1h1zm-8-1v1h1v-1h-1zm2 0v1h1v-1h-1zm3 3v1h1v-1h-1zm2 0v1h1v-1h-1zm-6 2v1h1v-1h-1zm1 1v1h1v-1h-1zm0 1h-1v1h1v-1zm-1 0v-1h-1v1h1zm4-2v1h1v-1h-1zm2 0v1h1v-1h-1z" transform="translate(421.71 531.79)"/>
 </g>
</svg>

<?xml version="1.0" encoding="UTF-8" standalone="no"?>
<!--Created with Inkscape (http://www.inkscape.org/)-->
<svg xmlns:dc="http://purl.org/dc/elements/1.1/" xmlns:cc="http://creativecommons.org/ns#" xmlns:rdf="http://www.w3.org/1999/02/22-rdf-syntax-ns#" xmlns:svg="http://www.w3.org/2000/svg" xmlns="http://www.w3.org/2000/svg" xmlns:sodipodi="http://sodipodi.sourceforge.net/DTD/sodipodi-0.dtd" xmlns:inkscape="http://www.inkscape.org/namespaces/inkscape" width="16" height="16" id="svg3049" version="1.1" inkscape:version="0.91 r13725" sodipodi:docname="office-chart-scatter.svg" inkscape:export-filename="/home/uri/.kde/share/icons/NITRUX-KDE/16x16/actions/view-right-new.png" inkscape:export-xdpi="30" inkscape:export-ydpi="30">
    <defs id="defs3051">
        <style type="text/css" id="current-color-scheme">
            .ColorScheme-Text { color:#4d4d4d; } .ColorScheme-Background { color:#eff0f1; } .ColorScheme-Highlight { color:#3daee9; } .ColorScheme-ViewText { color:#31363b; } .ColorScheme-ViewBackground { color:#fcfcfc; } .ColorScheme-ViewHover { color:#93cee9; } .ColorScheme-ViewFocus{ color:#3daee9; } .ColorScheme-ButtonText { color:#31363b; } .ColorScheme-ButtonBackground { color:#eff0f1; } .ColorScheme-ButtonHover { color:#93cee9; } .ColorScheme-ButtonFocus{ color:#3daee9; }
        </style>
    </defs>
    <sodipodi:namedview id="base" pagecolor="#000000" bordercolor="#666666" borderopacity="1.0" inkscape:pageopacity="0.0" inkscape:pageshadow="2" inkscape:zoom="18.39008" inkscape:cx="2.9165701" inkscape:cy="5.1653699" inkscape:document-units="px" inkscape:current-layer="layer1" showgrid="false" fit-margin-top="0" fit-margin-left="0" fit-margin-right="0" fit-margin-bottom="0" inkscape:window-width="1600" inkscape:window-height="847" inkscape:window-x="0" inkscape:window-y="30" inkscape:window-maximized="1" inkscape:showpageshadow="false" borderlayer="true" inkscape:snap-bbox="true" inkscape:snap-global="true" inkscape:object-nodes="true" showguides="false" inkscape:guide-bbox="true">
        <inkscape:grid type="xygrid" id="grid4085"/>
        <sodipodi:guide position="2.0000044,14.00003" orientation="12,0" id="guide4075"/>
        <sodipodi:guide position="14.000004,2.0000296" orientation="-12,0" id="guide4079"/>
        <sodipodi:guide position="14.000004,14.00003" orientation="0,-12" id="guide4081"/>
        <sodipodi:guide position="8,2" orientation="0,1" id="guide4178"/>
    </sodipodi:namedview>
    <metadata id="metadata3054">
        <rdf:RDF>
            <cc:Work rdf:about="">
                <dc:format>
                    image/svg+xml
                </dc:format>
                <dc:type rdf:resource="http://purl.org/dc/dcmitype/StillImage"/>
                <dc:title/>
            </cc:Work>
        </rdf:RDF>
    </metadata>
    <g inkscape:label="Capa 1" inkscape:groupmode="layer" id="layer1" transform="translate(-421.71429,-531.79074)">
        <path style="fill:#000000;fill-opacity:1;stroke:none;opacity:0.5" d="M 2 2 L 2 13 L 2 14 L 3 14 L 14 14 L 14 13 L 3 13 L 3 2 L 2 2 z M 4 2 L 4 3 L 5 3 L 5 2 L 4 2 z M 6 2 L 6 3 L 7 3 L 7 2 L 6 2 z M 12 3 L 12 4 L 13 4 L 13 3 L 12 3 z M 13 4 L 13 5 L 14 5 L 14 4 L 13 4 z M 13 5 L 12 5 L 12 6 L 13 6 L 13 5 z M 12 5 L 12 4 L 11 4 L 11 5 L 12 5 z M 4 4 L 4 5 L 5 5 L 5 4 L 4 4 z M 6 4 L 6 5 L 7 5 L 7 4 L 6 4 z M 9 7 L 9 8 L 10 8 L 10 7 L 9 7 z M 11 7 L 11 8 L 12 8 L 12 7 L 11 7 z M 5 9 L 5 10 L 6 10 L 6 9 L 5 9 z M 6 10 L 6 11 L 7 11 L 7 10 L 6 10 z M 6 11 L 5 11 L 5 12 L 6 12 L 6 11 z M 5 11 L 5 10 L 4 10 L 4 11 L 5 11 z M 9 9 L 9 10 L 10 10 L 10 9 L 9 9 z M 11 9 L 11 10 L 12 10 L 12 9 L 11 9 z " transform="translate(421.71429,531.79074)" id="rect4250"/>
    </g>
</svg>
